X:1
T:Trip to Marrow-bone, A
M:9/8
L:1/8
R:Country Dance
B: Young – Second Volume of the Dancing Master, 1st edition (1710, p. )
K:Gdor
A2B cBA BAG|^FAA A2G ^FED|BAB cBc d2D|
DGG G2A BAG::f2f fgf e2d|cAB A2G ^F>ED|
g2g g>ag ^f2d|dgg g2a bag|f2f f>gf e2d|
cAB A2G ^F>ED|BAB cBc d2D|DGG G2A BAB:|]

